optimized/outline/office-building.svg

<svg xmlns="http://www.w3.org/2000/svg" fill="none" viewBox="0 0 24 24" stroke-width="2" stroke="currentColor" aria-hidden="true">
  <path stroke-linecap="round" stroke-linejoin="round" d="M19 21V5C19 3.89543 18.1046 3 17 3H7C5.89543 3 5 3.89543 5 5V21M19 21L21 21M19 21H14M5 21L3 21M5 21H10M9 6.99998H10M9 11H10M14 6.99998H15M14 11H15M10 21V16C10 15.4477 10.4477 15 11 15H13C13.5523 15 14 15.4477 14 16V21M10 21H14"/>
</svg>

<svg xmlns="http://www.w3.org/2000/svg" fill="none" viewBox="0 0 24 24" stroke-width="2" stroke="currentColor" aria-hidden="true">
  <path stroke-linecap="round" stroke-linejoin="round" d="M19 21V5a2 2 0 00-2-2H7a2 2 0 00-2 2v16m14 0h2m-2 0h-5m-9 0H3m2 0h5M9 7h1m-1 4h1m4-4h1m-1 4h1m-5 10v-5a1 1 0 011-1h2a1 1 0 011 1v5m-4 0h4"/>
</svg>
